X:21
T:Polska ur Petter Dufvas notbok (Ma6-21)
R:Polska
O:Verkelbäck, Småland
B:Petter Dufvas notbok
S:Petter Dufva
N:Smus Ma6 bild 23
M:3/4
L:1/8
K:Dm
GG/^F/ G2A2|(3BAG cB AG|AA/B/ A4|dd/^c/ d2 e2|(3fed gf ed|ed/^c/ d2 D2:|
K:Gm
gg f2 d2|c2 B2 AG|AA/B/ A4|GG/^F/ G2 A2|(3BAG cB AG|AG/^F/ G2 G,2:|

